X:1
T:Wall Street Rag
T:WALL  STREET “RAG”
T:By SCOTT JOPLIN Composer of “Maple Leaf Rag,” “Sugar Cane Rag” and “Pineapple Rag.”
T:   NOTE: Do not play this piece fast. It is never right to play Ragtime fast. Composer.
T:Public Domain
T:Public Domain
T:Public Domain
C:Scott Joplin
Z:Public Domain
%%score { ( 1 4 ) | ( 2 3 ) }
L:1/8
Q:1/4=60
M:2/4
K:C
V:1 treble nm="PIANO."
V:4 treble 
V:2 bass 
V:3 bass 
V:1
!mf!"^Very Slow March Time" c>A DC/D/ | E F2 G | ED/E/ F/A_A/ | G2 !>![GBg] z |: %4
"^Panic in Wall Street, Brokers feeling melancholy."!mf! ([CE]/[DF]/[EG]/[^DA]/-) ([DA]/[^F^d]/[Ge]/[Ec]/) | %5
 =dd/e/ (d/c/D/F/) | ([CE]/[DF]/[EG]/[^DA]/-) ([DA]/[^F^d]/[Ge]/[Ec]/) | =de/d/ (c/d/e/G/) | %8
 (^G/E/G/e/-) (e/f/e) | (A/E/c/e/-) (e/f/e) |!<(! (e/d/^f/b/-) ([dfb]/[efc']/[dfb]/[cfa]/)!<)! | %11
 ([B=fa]/g/f/d/!>(! [FGe]/d/G/F/)!>)! |!mf! ([CE]/[DF]/[EG]/[^DA]/-) ([DA]/[^F^d]/[Ge]/[Ec]/) | %13
 =dd/e/ (d/c/D/F/) | ([CE]/[DF]/[EG]/[^DA]/-) ([DA]/[^F^d]/[Ge]/[Ec]/) | =dc/d/ cc/d/ | %16
 (e/c/G/A/-) ([CA]/[A^cea]/[_Bce_b]/[Acea]/) | %17
 [e^f=c'e'][dfc'd']/[Acfa]/- ([Acfa]/[^G^g]/[Afa]/[cfc']/) | %18
 [e=ge'][d=fd']/[af'a']/- ([af'a']/[ge'g']/[ege']/[dfd']/) |1 [cec']2- [cec']/(G/D/^D/) :|2 %20
 [cec']2- [cec'][cc']/[_B_b]/ |:!f!"^Good times coming." [Acfa][Acfa] [cfac'][c^fac'] | %22
 [cgc']2 (ba) | a>a (a/g/b/a/) | a>a (a/g/)[cc']/[_B_b]/ | [Acfa][Acfa] [cfac'][c^fac'] | %26
 [cgc']2 (ba) | [c=fa][cea] (^g>b) | [cea]2 (a/=g/)[cc']/[_B_b]/ | [Acfa][Acfa] [cfac'][c^fac'] | %30
 [cgc']2 (ba) | a>a (a/g/b/a/) | a>a (a/g/)[Cc]/[Dd]/ | [^DAc^d]2 [^FAc^f]2 | [Ac^da]4 | %35
 ([Aa][Gg]) (e/=de/) |1 [Ec][Ee]/[Ff]/ [^F^f]/[Gg]/[cec']/[_Be_b]/ :|2 [Ec]2- [Ec] (G/^G/) |: %38
[K:F]"^Good times have come."!mp! [FA]/[=GB]/[Ac]/[FA]/- ([FA]/[CFA]/[DFA]) | %39
 [FA]/[CFA]/[^CFA]/[DFA]/- ([DFA]/[_EFA][DFA]/-) | %40
 ([FA]/G/F/[FG]/-) ([DFG]/[F,_D]/[G,D]/[A,=C]/-) | [A,C]2- [A,C]/([Bd]/[Ac]/[GB]/) | %42
 [FA]/[GB]/[Ac]/[FA]/- ([FA]/[CFA]/[DFA]) | %43
 [FA]/[CFA]/[^CFA]/[DFA]/-!<(! [DFA]/[=C^DA][CEA]/-!<)! |!<(! (A/G/^F/G/) [=FG=B]/[GBe][FBd]/!<)! | %45
 (dc)!>(! (G^G)!>)! |!mp! [FA]/[=GB]/[Ac]/[FA]/- ([FA]/[CFA]/[DFA]) | %47
 [FA]/[CFA]/[^CFA]/[DFA]/- [DFA]/[_EFA][DFA]/- | [FA]/G/F/[FG]/-!<(! [DFG][_D=E^G]!<)! | %49
 z/ [A^c]/[ce]/[ca]/- [ca]/ z/ z |!mf! [DA][^F=cd]/[Fc_e]/- [Fce]/d/[d^fb]/[cfa]/ | %51
 [=fa]/d/f/[fg]/- [fg]/a/[fg] | a/g/e/c'/- c'/_b/d/e/ |1 [Acf]2-!>(! (f/F/G/^G/)!>)! :|2 %54
 [Acf]2- [Acf] (!^!d/^d/) |: %55
"^Listening to the strains of genuine negro"!mf! e/[gbc'=d']/d/^d/ e/[gbc'=d']/=d/^d/ | %56
 e/[gbc'=d'][abc']/- [abc']/(g/d/e/) | %57
"^ragtime, brokers forget their cares." f/[ac'd']/d/e/ f/[ac'd']/d/e/ | %58
 f/[gac'][gac']/- [gac']/(f/e/f/) | ^f/[ac'_e']/=e/^e/ f/[ac'_e']/=e/[fad']/ | %60
 [gbd']/[abd'][abd']/- [abd']/(g/a/b/) |!<(! =b/[d'e']/^g/a/ b/[d'e']/g/[bd'e']/!<)! | %62
!f! [ac'e']2 [c^d^fc'](=d/^d/) |!mf! e/[gbc'=d']/d/^d/ e/[gbc'=d']/=d/^d/ | %64
 e/[gbc'=d'][abc']/- [abc']/(g/d/e/) | f/[ac'd']/d/e/ f/[ac'd']/d/e/ | %66
 f/[gac'][gac']/- [gac']/(f/e/f/) | ^f/[ac'_e']/=e/^e/ f/[ac'_e']/=e/[fad']/ | %68
 [gbd']/[abd'][abd']/- [abd']/[gbd']/!^![^g=b=f'] | !^![c'f']/d'/c'/a/ a/=gc'/ |1 %70
 [Acf]2- [Acf]!^!d/^d/ :|2 [Acf]2 [fac'f'] z!fine! |] %72
V:2
 C>A, D,C,/D,/ | E, F,2 G, | E,D,/E,/ F,/A,_A,/ | G,2 !>![G,,G,] z |: (G,>^F, CG,) | _A,3 A, | %6
 (G,>^F, CG,) | [C,_A,]3 [C,G,] | [B,,B,][^G,DE] [E,,E,][D,,D,] | [C,,C,][A,CE] [A,,A,][=G,,=G,] | %10
 [^F,,^F,][F,CD] [D,,D,][F,CD] | [G,,G,][G,B,D] B,,[G,B,D] | (G,>^F, CG,) | _A,3 A, | %14
 (G,>^F, CG,) | _A,3 A, | G,_B, [=A,,=A,][G,,G,] | [^F,,^F,][F,CD] [D,D][C,C] | %18
 [B,,B,][G,B,=F] [G,,G,][G,B,F] |1 [C,C]G, C,[G,B,] :|2 [C,C]G, !tenuto!C,2 |: %21
 [F,,F,][A,CF] [F,,F,][^D,,^D,] | E,[G,CE] _E,[C_E^F] | D,[CD=F] G,,[B,DF] | %24
 C,[G,CE] [E,,E,][C,,C,] | [F,,F,][A,CF] [F,,F,][^D,,^D,] | E,[G,CE] _E,[C_E^F] | %27
 [D,,D,][=E,,=E,] E,[^G,DE] | [A,,A,]/E,/C,/A,,/ [C,,C,]2 | [F,,F,][A,CF] [F,,F,][^D,,^D,] | %30
 E,[G,CE] _E,[C_E^F] | D,[CD=F] G,,[B,DF] | C,[G,CE] E,[E,G,] | (^F,,/A,,/^F,) (^D,/F,/^D) | %34
 (^F/^D/C/A,/ D/C/A,/^F,/) | G,[CE] G,,G, |1 [C,G,] z z [C,,C,] :|2 G,2- G, z |: %38
[K:F] [C,A,][C,F,A,] C,,[C,F,] | F,,[=C,F,] C,,[C,F,] | (B,,,B,,) (B,,,B,,) | %41
 F,,[C,F,A,] C,,[C,E,B,] | [C,A,][C,F,A,] C,,[C,F,] | F,,F, (^F,,^F,) | (G,,G,) (G,,G,) | %45
 (C,2 [C,,C,]2) | [C,A,][C,F,A,] C,,[C,F,] | F,,[=C,F,] C,[F,A,] | B,,D, [B,,B,][B,,B,] | %49
 A,[E,A,] G,[E,A,] | [^F,,^F,][D,F,C] [D,,D,][F,CD] | [G,,G,][G,=B,D] [D,,D,][^D,,^D,] | %52
 [E,,E,][_B,CE] [C,,C,][B,CE] |1 [F,,F,][E,,E,]/[D,,D,]/ [C,,C,]2 :|2 %54
 [F,,F,]A,,/C,/ [F,,F,]!^![^F,,^F,] |: [G,,G,][B,CE] [C,,C,][B,CE] | [G,,G,][B,CE] [C,C][B,,B,] | %57
 [A,,A,][A,CF] [C,,C,][A,CF] | [F,,F,][A,CF] [C,C][A,CF] | [A,,A,][^F,CD] [D,D][C,C] | %60
 [B,,B,][G,B,D] [G,,G,][G,B,D] | [^G,,^G,][=B,DE] [E,,E,][G,DE] | [A,,A,][A,CE] [A,,A,][^F,,^F,] | %63
 [G,,G,][B,CE] [C,,C,][B,CE] | [G,,G,][B,CE] [C,C][B,,B,] | [A,,A,][A,CF] [C,,C,][A,CF] | %66
 [F,,F,][A,CF] [C,C][A,CF] | [A,,A,][^F,CD] [D,D][C,C] | [B,,B,][G,B,D] [D,D]!^![_D,_D] | %69
 !^![C,C][A,CF] [C,,C,][B,CE] |1 [F,,F,]A,,/C,/ !^![F,,F,][^F,,^F,] :|2 [F,,F,]C, !^!F,, z |] %72
V:3
 x4 | x4 | x4 | x4 |: C,4 | C,4 | C,4 | x4 | x4 | x4 | x4 | x4 | C,4 | C,4 | C,4 | C,4 | C,2 x2 | %17
 x4 | x4 |1 x4 :|2 x4 |: x4 | [E,,E,]2 [_E,,_E,]2 | [D,,D,]2 [G,,,G,,]2 | [C,,C,]2 x2 | x4 | %26
 [E,,E,]2 [_E,,_E,]2 | x2 [E,,E,]2 | x4 | x4 | [E,,E,]2 [_E,,_E,]2 | [D,,D,]2 [G,,,G,,]2 | %32
 [C,,C,]2 [E,,E,]2 | x4 | x4 | G,2 G,,2 |1 x4 :|2 C,G,, C,,2 |:[K:F] F,,2 C,,2 | F,,2 C,,2 | x4 | %41
 F,,2 C,,2 | F,,2 C,,2 | F,,2 ^F,,2 | G,,2 G,,2 | x4 | F,,2 C,,2 | F,,2 C,2 | x4 | %49
 [A,,A,]2 [G,,G,]2 | x4 | x4 | x4 |1 x4 :|2 x4 |: x4 | x4 | x4 | x4 | x4 | x4 | x4 | x4 | x4 | x4 | %65
 x4 | x4 | x4 | x4 | x4 |1 x4 :|2 x4 |] %72
V:4
 x4 | x4 | x4 | x4 |: x4 | =F2- FC | x4 | =F2- FE | E>^G- GG | E>[Ac]- [Ac][Ac] | c>[d^f]- x2 | %11
 x4 | x4 | =F2- FC | x4 | =F2- FF | E>^C- x2 | x4 | x4 |1 x4 :|2 x2 x e |: x4 | x2 [c^f]2 | %23
 [c=f]2 [Bf]2 | [ce]2 [ce]e | x4 | x2 [c^f]2 | x2 [de]2 | x2 [ce]e | x4 | x2 [c^f]2 | %31
 [c=f]2 [Bf]2 | [ce]2 [ce] z | x4 | x4 | [ce]2 [GB]<[FB] |1 x4 :|2 x3 [_B,E] |:[K:F] x4 | x4 | %40
 D>_D- x2 | z/ [fa]/[ea]/[=da]/- [da]/ z/ z | x4 | x4 | [CE]2 x2 | [E_B]2 [B,E]2 | x4 | x4 | %48
 D>_D- x2 | [^CEA]2- [CEA]/[CE]/[CA] | x4 | =B>B- BB | [ce]>[ce]- [ce]_B |1 x2 [Ac]/A,/[B,E] :|2 %54
 x4 |: x4 | x4 | x4 | x4 | x4 | x4 | x4 | x4 | x4 | x4 | x4 | x4 | x4 | x4 | a2 [ce]<[_Be] |1 %70
 x4 :|2 x4 |] %72

